public/formular-icons/english/lower-v.svg

<svg style="vertical-align:-.025ex" xmlns="http://www.w3.org/2000/svg" width="1.097ex" height="1.027ex" viewBox="0 -443 485 454" xmlns:xlink="http://www.w3.org/1999/xlink"><defs><path id="a" d="M173 380q0 25-19 25-24 0-50-29t-43-89q-1-1-2-3t-1-3-2-2-3-1-4 0-8 0H27q-6 6-6 9 0 7 8 29t24 52 44 51 63 22q42 0 65-24t24-56q0-17-3-26 0-6-15-44t-31-89-18-89q0-27 5-44 13-43 63-43 37 0 69 34t50 79 29 83 11 55q0 23-8 40t-18 26-18 18-8 22q0 22 19 41t41 19q19 0 34-18t16-58q0-27-12-83t-37-125-71-119-106-51q-64 0-102 33-37 32-37 95 0 31 8 64t41 117q22 64 22 82Z"/></defs><g stroke="currentColor" fill="currentColor" stroke-width="0"><use data-c="1D463" xlink:href="#a" transform="scale(1 -1)"/></g></svg>

<svg style="vertical-align: -0.025ex" xmlns="http://www.w3.org/2000/svg" width="1.097ex" height="1.027ex" role="img" focusable="false" viewBox="0 -443 485 454" xmlns:xlink="http://www.w3.org/1999/xlink"><defs><path id="MJX-75-TEX-I-1D463" d="M173 380Q173 405 154 405Q130 405 104 376T61 287Q60 286 59 284T58 281T56 279T53 278T49 278T41 278H27Q21 284 21 287Q21 294 29 316T53 368T97 419T160 441Q202 441 225 417T249 361Q249 344 246 335Q246 329 231 291T200 202T182 113Q182 86 187 69Q200 26 250 26Q287 26 319 60T369 139T398 222T409 277Q409 300 401 317T383 343T365 361T357 383Q357 405 376 424T417 443Q436 443 451 425T467 367Q467 340 455 284T418 159T347 40T241 -11Q177 -11 139 22Q102 54 102 117Q102 148 110 181T151 298Q173 362 173 380Z"></path></defs><g stroke="currentColor" fill="currentColor" stroke-width="0" transform="scale(1,-1)"><g data-mml-node="math"><g data-mml-node="mi"><use data-c="1D463" xlink:href="#MJX-75-TEX-I-1D463"></use></g></g></g></svg>
